X: 2
T: Macedonian Oro
M: 7/8
L: 1/8
K: Dmaj
|:&quot;D&quot;eff fedA|&quot;A&quot;dee edcA|&quot;G&quot;cdd dedc|&quot;A&quot;c2A cdeA|
&quot;D&quot;eff fedA|&quot;A&quot;dee edcA|&quot;G&quot;cdd dedc|&quot;A&quot;c2A c4:|
K: Amaj
|:&quot;C#m&quot;cef g2g2|gaa gfe2|cef g2g2|gaa g4| 
&quot;D&quot;efg gagf|&quot;A&quot;e2d cdeA|&quot;D&quot;e2d dedc|&quot;A&quot;c2A cdeA|
&quot;D&quot;efg gagf|&quot;A&quot;e2d cdeA|&quot;D&quot;e2d dedc|&quot;A&quot;c2A c4:|
